assets/icons.svg

<?xml version="1.0" encoding="UTF-8"?><!DOCTYPE svg PUBLIC "-//W3C//DTD SVG 1.1//EN" "http://www.w3.org/Graphics/SVG/1.1/DTD/svg11.dtd"><svg xmlns="http://www.w3.org/2000/svg" xmlns:xlink="http://www.w3.org/1999/xlink"><defs/><symbol id="browse" viewBox="0 0 1000 1000">
<title>browse</title>
<path d="M908.511 727.659v-544.681h-817.021v544.681h817.021zM908.511 91.489q38.298 0 64.894 26.596t26.596 64.894l-2.128 544.681q0 36.17-26.596 62.766t-62.766 26.596h-227.659v91.489h-361.702v-91.489h-227.659q-38.298 0-64.894-25.532t-26.596-63.83v-544.681q0-38.298 26.596-64.894t64.894-26.596h817.021z"/>
</symbol><symbol id="caret-down" viewBox="0 0 1000 1000">
<title>caret-down</title>
<path d="M0 299.065h1000l-500 500z"/>
</symbol><symbol id="caret-up" viewBox="0 0 1000 1000">
<title>caret-up</title>
<path d="M0 700.935l500-500 500 500h-1000z"/>
</symbol><symbol id="close" viewBox="0 0 1000 1000">
<title>close</title>
<path d="M1000 100.671l-399.329 399.329 399.329 399.329-100.671 100.671-399.329-399.329-399.329 399.329-100.671-100.671 399.329-399.329-399.329-399.329 100.671-100.671 399.329 399.329 399.329-399.329z"/>
</symbol><symbol id="github" viewBox="0 0 1000 1000">
<title>github</title>
<path d="M500 12.375c-276.25 0-500 223.875-500 500 0 220.958 143.25 408.333 341.875 474.375 25 4.708 34.167-10.75 34.167-24.042 0-11.875-0.417-43.333-0.625-85-139.083 30.167-168.417-67.083-168.417-67.083-22.75-57.708-55.625-73.125-55.625-73.125-45.292-31 3.5-30.375 3.5-30.375 50.208 3.5 76.583 51.5 76.583 51.5 44.583 76.458 117.042 54.375 145.625 41.583 4.5-32.333 17.375-54.375 31.667-66.875-111.042-12.5-227.75-55.5-227.75-247.083 0-54.583 19.375-99.167 51.458-134.167-5.625-12.625-22.5-63.458 4.375-132.333 0 0 41.875-13.417 137.5 51.25 40-11.125 82.5-16.625 125-16.875 42.5 0.25 85 5.75 125 16.875 95-64.667 136.875-51.25 136.875-51.25 26.875 68.875 10 119.708 5 132.333 31.875 35 51.25 79.583 51.25 134.167 0 192.083-116.875 234.375-228.125 246.667 17.5 15 33.75 45.667 33.75 92.5 0 66.917-0.625 120.667-0.625 136.917 0 13.125 8.75 28.75 34.375 23.75 200.042-65.583 343.167-253.083 343.167-473.708 0-276.125-223.875-500-500-500z"/>
</symbol><symbol id="minus" viewBox="0 0 1000 1000">
<title>minus</title>
<path d="M0.001 416.017h1000v167.968h-1000v-167.968z"/>
</symbol><symbol id="pause" viewBox="0 0 1000 1000">
<title>pause</title>
<path d="M644.295 0h285.235v1000h-285.235v-1000zM70.47 1000v-1000h285.235v1000h-285.235z"/>
</symbol><symbol id="piano" viewBox="0 0 1000 1000">
<title>piano</title>
<path d="M906.406 1000h-812.813c-51.594 0-93.594-42-93.594-93.594v-812.813c0-51.594 42-93.594 93.594-93.594h812.813c51.594 0 93.594 42 93.594 93.594v812.813c0 51.594-42 93.594-93.594 93.594zM93.594 62.5c-17.156 0-31.094 13.938-31.094 31.094v812.813c0 17.156 13.938 31.094 31.094 31.094h812.813c17.156 0 31.094-13.938 31.094-31.094v-812.813c0-17.156-13.938-31.094-31.094-31.094h-812.813zM468.75 62.5h62.5v875h-62.5zM718.75 62.5h62.5v875h-62.5zM218.75 62.5h62.5v875h-62.5zM296.969 625h-93.938c-25.813 0-46.781-21-46.781-46.781v-531.438c0-25.813 20.969-46.781 46.781-46.781h93.969c25.781 0 46.75 20.969 46.75 46.781v531.438c0 25.781-20.969 46.781-46.781 46.781zM218.75 562.5h62.5v-500h-62.5v500zM796.969 625h-93.938c-25.781 0-46.781-21-46.781-46.781v-531.438c0-25.813 21-46.781 46.781-46.781h93.938c25.781 0 46.781 20.969 46.781 46.781v531.438c0 25.781-21 46.781-46.781 46.781zM718.75 562.5h62.5v-500h-62.5v500zM546.969 625h-93.938c-25.813 0-46.781-21-46.781-46.781v-531.438c0-25.813 20.969-46.781 46.781-46.781h93.938c25.781 0 46.781 20.969 46.781 46.781v531.438c0 25.781-21 46.781-46.781 46.781zM468.75 562.5h62.5v-500h-62.5v500z"/>
</symbol><symbol id="play" viewBox="0 0 1000 1000">
<title>play</title>
<path d="M214.765 0l785.235 500-785.235 500v-1000z"/>
</symbol><symbol id="plus" viewBox="0 0 1000 1000">
<title>plus</title>
<path d="M1000 570.47h-429.53v429.53h-140.939v-429.53h-429.53v-140.939h429.53v-429.53h140.939v429.53h429.53v140.939z"/>
</symbol><symbol id="upload" viewBox="0 0 1000 1000">
<title>upload</title>
<path d="M300.47 650.234l199.53-199.53 199.53 199.53-70.423 72.77-79.812-79.813v206.573h-98.592v-206.573l-79.813 77.465zM800.47 901.408v-551.644h-251.174v-251.174h-349.766v802.817h600.939zM600.939 0l300.47 300.47v600.939q0 39.906-30.517 69.249t-70.423 29.343h-600.939q-39.906 0-70.423-29.343t-30.517-69.249l2.348-802.817q0-39.906 29.343-69.249t69.249-29.343h401.408z"/>
</symbol><symbol id="volume-off" viewBox="0 0 1000 1000">
<title>volume-off</title>
<path d="M500 54.688v234.375l-117.188-117.188zM70.313 0l929.688 929.688-70.313 70.313-114.583-114.583q-85.938 72.917-203.125 101.563v-114.583q65.104-18.229 125-65.104l-236.979-236.979v375l-278.646-278.646h-221.354v-333.333h263.021l-263.021-263.021zM888.021 500q0-132.813-76.823-234.375t-199.219-138.021v-114.583q169.271 36.458 278.646 173.177t109.375 313.802q0 122.396-57.292 231.771l-83.333-85.938q28.646-70.313 28.646-145.833zM750 500q0 23.438-2.604 33.854l-135.417-135.417v-122.396q57.292 28.646 97.656 93.75t40.364 130.208z"/>
</symbol><symbol id="volume" viewBox="0 0 1000 1000">
<title>volume</title>
<path d="M611.979 13.021q169.271 36.458 278.646 173.177t109.375 313.802-109.375 313.802-278.646 173.177v-114.583q122.396-36.458 199.219-138.021t76.823-234.375-76.823-234.375-199.219-138.021v-114.583zM750 500q0 156.25-138.021 223.958v-447.917q57.292 28.646 97.656 93.75t40.364 130.208zM0 333.333h221.354l278.646-278.646v890.625l-278.646-278.646h-221.354v-333.333z"/>
</symbol></svg>

<?xml version="1.0" encoding="UTF-8"?><!DOCTYPE svg PUBLIC "-//W3C//DTD SVG 1.1//EN" "http://www.w3.org/Graphics/SVG/1.1/DTD/svg11.dtd"><svg xmlns="http://www.w3.org/2000/svg" xmlns:xlink="http://www.w3.org/1999/xlink"><defs/><symbol id="browse" viewBox="0 0 1000 1000"><path d="M908.511 727.659V182.978H91.49v544.681h817.021zm0-636.17q38.298 0 64.894 26.596t26.596 64.894l-2.128 544.681q0 36.17-26.596 62.766t-62.766 26.596H680.852v91.489H319.15v-91.489H91.491q-38.298 0-64.894-25.532T.001 727.66V182.979q0-38.298 26.596-64.894t64.894-26.596h817.021z"/></symbol><symbol id="caret-down" viewBox="0 0 1000 1000"><path d="M0 299.065h1000l-500 500z"/></symbol><symbol id="caret-up" viewBox="0 0 1000 1000"><path d="M0 700.935l500-500 500 500H0z"/></symbol><symbol id="close" viewBox="0 0 1000 1000"><path d="M1000 100.671L600.671 500 1000 899.329 899.329 1000 500 600.671 100.671 1000 0 899.329 399.329 500 0 100.671 100.671 0 500 399.329 899.329 0z"/></symbol><symbol id="github" viewBox="0 0 1000 1000"><path d="M500 12.375c-276.25 0-500 223.875-500 500C0 733.333 143.25 920.708 341.875 986.75c25 4.708 34.167-10.75 34.167-24.042 0-11.875-.417-43.333-.625-85C236.334 907.875 207 810.625 207 810.625c-22.75-57.708-55.625-73.125-55.625-73.125-45.292-31 3.5-30.375 3.5-30.375 50.208 3.5 76.583 51.5 76.583 51.5C276.041 835.083 348.5 813 377.083 800.208c4.5-32.333 17.375-54.375 31.667-66.875C297.708 720.833 181 677.833 181 486.25c0-54.583 19.375-99.167 51.458-134.167-5.625-12.625-22.5-63.458 4.375-132.333 0 0 41.875-13.417 137.5 51.25 40-11.125 82.5-16.625 125-16.875 42.5.25 85 5.75 125 16.875 95-64.667 136.875-51.25 136.875-51.25 26.875 68.875 10 119.708 5 132.333 31.875 35 51.25 79.583 51.25 134.167 0 192.083-116.875 234.375-228.125 246.667 17.5 15 33.75 45.667 33.75 92.5 0 66.917-.625 120.667-.625 136.917 0 13.125 8.75 28.75 34.375 23.75C856.875 920.501 1000 733.001 1000 512.376c0-276.125-223.875-500-500-500z"/></symbol><symbol id="minus" viewBox="0 0 1000 1000"><path d="M.001 416.017h1000v167.968H.001V416.017z"/></symbol><symbol id="pause" viewBox="0 0 1000 1000"><path d="M644.295 0H929.53v1000H644.295V0zM70.47 1000V0h285.235v1000H70.47z"/></symbol><symbol id="piano" viewBox="0 0 1000 1000"><path d="M906.406 1000H93.593c-51.594 0-93.594-42-93.594-93.594V93.593c0-51.594 42-93.594 93.594-93.594h812.813c51.594 0 93.594 42 93.594 93.594v812.813C1000 958 958 1000 906.406 1000zM93.594 62.5C76.438 62.5 62.5 76.438 62.5 93.594v812.813c0 17.156 13.938 31.094 31.094 31.094h812.813c17.156 0 31.094-13.938 31.094-31.094V93.594c0-17.156-13.938-31.094-31.094-31.094H93.594zm375.156 0h62.5v875h-62.5zm250 0h62.5v875h-62.5zm-500 0h62.5v875h-62.5zM296.969 625h-93.938c-25.813 0-46.781-21-46.781-46.781V46.781C156.25 20.968 177.219 0 203.031 0H297c25.781 0 46.75 20.969 46.75 46.781v531.438C343.75 604 322.781 625 296.969 625zm-78.219-62.5h62.5v-500h-62.5v500zM796.969 625h-93.938c-25.781 0-46.781-21-46.781-46.781V46.781c0-25.813 21-46.781 46.781-46.781h93.938c25.781 0 46.781 20.969 46.781 46.781v531.438c0 25.781-21 46.781-46.781 46.781zm-78.219-62.5h62.5v-500h-62.5v500zM546.969 625h-93.938c-25.813 0-46.781-21-46.781-46.781V46.781C406.25 20.968 427.219 0 453.031 0h93.938c25.781 0 46.781 20.969 46.781 46.781v531.438c0 25.781-21 46.781-46.781 46.781zm-78.219-62.5h62.5v-500h-62.5v500z"/></symbol><symbol id="play" viewBox="0 0 1000 1000"><path d="M214.765 0L1000 500l-785.235 500V0z"/></symbol><symbol id="plus" viewBox="0 0 1000 1000"><path d="M1000 570.47H570.47V1000H429.531V570.47H.001V429.531h429.53V.001H570.47v429.53H1000V570.47z"/></symbol><symbol id="settings" viewBox="0 0 1000 1000">
<title>settings</title>
<path d="M500 676.057q72.77 0 124.413-51.644t51.644-124.413-51.644-124.413-124.413-51.644-124.413 51.644-51.644 124.413 51.644 124.413 124.413 51.644zM873.239 549.296l105.634 82.159q16.432 11.737 4.695 32.864l-100.939 173.709q-9.39 16.432-30.517 9.39l-124.413-49.296q-49.296 35.211-84.507 49.296l-18.779 131.455q-4.695 21.127-23.475 21.127h-201.878q-18.779 0-23.475-21.127l-18.779-131.455q-44.601-18.779-84.507-49.296l-124.413 49.296q-21.127 7.042-30.517-9.39l-100.939-173.709q-11.737-21.127 4.695-32.864l105.634-82.159q-2.348-16.432-2.348-49.296t2.348-49.296l-105.634-82.159q-16.432-11.737-4.695-32.864l100.939-173.709q9.39-16.432 30.517-9.39l124.413 49.296q49.296-35.211 84.507-49.296l18.779-131.455q4.695-21.127 23.475-21.127h201.878q18.779 0 23.475 21.127l18.779 131.455q44.601 18.779 84.507 49.296l124.413-49.296q21.127-7.042 30.517 9.39l100.939 173.709q11.737 21.127-4.695 32.864l-105.634 82.159q2.348 16.432 2.348 49.296t-2.348 49.296z"/>
</symbol><symbol id="upload" viewBox="0 0 1000 1000"><path d="M300.47 650.234L500 450.704l199.53 199.53-70.423 72.77-79.812-79.813v206.573h-98.592V643.191l-79.813 77.465zm500 251.174V349.764H549.296V98.59H199.53v802.817h600.939zM600.939 0l300.47 300.47v600.939q0 39.906-30.517 69.249t-70.423 29.343H199.53q-39.906 0-70.423-29.343T98.59 901.409l2.348-802.817q0-39.906 29.343-69.249T199.53 0h401.408z"/></symbol><symbol id="volume-off" viewBox="0 0 1000 1000"><path d="M500 54.688v234.375L382.812 171.875zM70.313 0l929.688 929.688-70.313 70.313-114.583-114.583q-85.938 72.917-203.125 101.563V872.398q65.104-18.229 125-65.104L500.001 570.315v375L221.355 666.669H.001V333.336h263.021L.001 70.315zm817.708 500q0-132.813-76.823-234.375T611.979 127.604V13.021Q781.25 49.479 890.625 186.198T1000 500q0 122.396-57.292 231.771l-83.333-85.938Q888.021 575.52 888.021 500zM750 500q0 23.438-2.604 33.854L611.979 398.437V276.041q57.292 28.646 97.656 93.75t40.364 130.208z"/></symbol><symbol id="volume" viewBox="0 0 1000 1000"><path d="M611.979 13.021Q781.25 49.479 890.625 186.198T1000 500 890.625 813.802 611.979 986.979V872.396q122.396-36.458 199.219-138.021T888.021 500t-76.823-234.375-199.219-138.021V13.021zM750 500q0 156.25-138.021 223.958V276.041q57.292 28.646 97.656 93.75t40.364 130.208zM0 333.333h221.354L500 54.687v890.625L221.354 666.666H0V333.333z"/></symbol></svg>
